X:2
T:All the trees
T:Taken down by L.E. Broadwood from old man, Dunsfold, Surrey, Sept. 1896
%%VWML:SBG-1-1-20-1
F:http://www.vwml.org/record/SBG/1/1/20
Z:Original Sibleius Transcription by Martin and Shan Graebe
M:4/4
L:1/8
K:G
C2 | C2 G2  G2 G2 | G2 A2 B2 G2 | A2 F2  D2 C2 | D6 D2 | D2 A2  A2 A2 | 
A2 B2 c2 A2 | B2 G2  G2 G2 | A6 A2 | A2 A2  B2 c2 | 
d2>A2 B2 c2 | B2 A2  G2 A2 | D4 E2 D2 | G2 G2  F2 G2 | (A2 D2) E2>D2 | D8 | G6 |]

